package/converter/svg/regular/rectangle-wide.svg

<svg xmlns="http://www.w3.org/2000/svg" viewBox="0 0 640 512"><!-- Font Awesome Pro 6.0.0-alpha2 by @fontawesome - https://fontawesome.com License - https://fontawesome.com/license (Commercial License) --><path d="M576 112C584.823 112 592 119.178 592 128V384C592 392.822 584.823 400 576 400H64C55.177 400 48 392.822 48 384V128C48 119.178 55.177 112 64 112H576M576 64H64C28.654 64 0 92.653 0 128V384C0 419.347 28.654 448 64 448H576C611.346 448 640 419.347 640 384V128C640 92.653 611.346 64 576 64L576 64Z"/></svg>

<svg xmlns="http://www.w3.org/2000/svg" viewBox="0 0 640 512"><!--! Font Awesome Pro 6.6.0 by @fontawesome - https://fontawesome.com License - https://fontawesome.com/license (Commercial License) Copyright 2024 Fonticons, Inc. --><path d="M576 112c8.8 0 16 7.2 16 16l0 256c0 8.8-7.2 16-16 16L64 400c-8.8 0-16-7.2-16-16l0-256c0-8.8 7.2-16 16-16l512 0zM64 64C28.7 64 0 92.7 0 128L0 384c0 35.3 28.7 64 64 64l512 0c35.3 0 64-28.7 64-64l0-256c0-35.3-28.7-64-64-64L64 64z"/></svg>
